Newaita-dark/.DP/scalable/weather-fog.svg

<?xml version="1.0" encoding="UTF-8"?>
<svg xmlns="http://www.w3.org/2000/svg" xmlns:xlink="http://www.w3.org/1999/xlink" width="512pt" height="512pt" viewBox="0 0 512 512" version="1.1">
<defs>
<linearGradient id="linear0" gradientUnits="userSpaceOnUse" x1="960" y1="1695.118164" x2="960" y2="815.118103" gradientTransform="matrix(0.264609,0,0,0.264609,0,-166.934702)">
<stop offset="0" style="stop-color:rgb(47.058824%,56.470588%,61.176471%);stop-opacity:1;"/>
<stop offset="1" style="stop-color:rgb(56.470588%,64.313725%,68.235294%);stop-opacity:1;"/>
</linearGradient>
<linearGradient id="linear1" gradientUnits="userSpaceOnUse" x1="254" y1="222.916672" x2="254" y2="95.916664" >
<stop offset="0" style="stop-color:rgb(47.058824%,56.470588%,61.176471%);stop-opacity:1;"/>
<stop offset="1" style="stop-color:rgb(56.470588%,64.313725%,68.235294%);stop-opacity:1;"/>
</linearGradient>
<linearGradient id="linear2" gradientUnits="userSpaceOnUse" x1="254" y1="222.916672" x2="254" y2="95.916664" >
<stop offset="0" style="stop-color:rgb(47.058824%,56.470588%,61.176471%);stop-opacity:1;"/>
<stop offset="1" style="stop-color:rgb(56.470588%,64.313725%,68.235294%);stop-opacity:1;"/>
</linearGradient>
<linearGradient id="linear3" gradientUnits="userSpaceOnUse" x1="254" y1="233.5" x2="254" y2="254.666672" gradientTransform="matrix(1.000095,0,0,1.000095,15.876516,204.436208)">
<stop offset="0" style="stop-color:rgb(0%,0%,0%);stop-opacity:0.27451;"/>
<stop offset="1" style="stop-color:rgb(0%,0%,0%);stop-opacity:0;"/>
</linearGradient>
<radialGradient id="radial0" gradientUnits="userSpaceOnUse" cx="450.908936" cy="189.579361" fx="450.908936" fy="189.579361" r="21.166656" gradientTransform="matrix(0.00000278673,-1.250119,-2.250215,-0.00000162462,717.662551,1006.940967)">
<stop offset="0" style="stop-color:rgb(0%,0%,0%);stop-opacity:0.313725;"/>
<stop offset="0.222222" style="stop-color:rgb(0%,0%,0%);stop-opacity:0.27451;"/>
<stop offset="1" style="stop-color:rgb(0%,0%,0%);stop-opacity:0;"/>
</radialGradient>
<radialGradient id="radial1" gradientUnits="userSpaceOnUse" cx="450.908936" cy="189.579361" fx="450.908936" fy="189.579361" r="21.166656" gradientTransform="matrix(-0.00000278673,1.250119,2.250215,0.00000162462,-209.614131,-131.024016)">
<stop offset="0" style="stop-color:rgb(0%,0%,0%);stop-opacity:0.313725;"/>
<stop offset="0.222222" style="stop-color:rgb(0%,0%,0%);stop-opacity:0.27451;"/>
<stop offset="1" style="stop-color:rgb(0%,0%,0%);stop-opacity:0;"/>
</radialGradient>
<radialGradient id="radial2" gradientUnits="userSpaceOnUse" cx="450.908936" cy="189.579361" fx="450.908936" fy="189.579361" r="21.166656" gradientTransform="matrix(-0.00000278673,-1.250119,2.250215,-0.00000162462,-209.614131,1006.940967)">
<stop offset="0" style="stop-color:rgb(0%,0%,0%);stop-opacity:0.313725;"/>
<stop offset="0.222222" style="stop-color:rgb(0%,0%,0%);stop-opacity:0.27451;"/>
<stop offset="1" style="stop-color:rgb(0%,0%,0%);stop-opacity:0;"/>
</radialGradient>
<radialGradient id="radial3" gradientUnits="userSpaceOnUse" cx="450.908936" cy="189.579361" fx="450.908936" fy="189.579361" r="21.166656" gradientTransform="matrix(0.00000278673,1.250119,-2.250215,0.00000162462,717.662521,-131.024024)">
<stop offset="0" style="stop-color:rgb(0%,0%,0%);stop-opacity:0.313725;"/>
<stop offset="0.222222" style="stop-color:rgb(0%,0%,0%);stop-opacity:0.27451;"/>
<stop offset="1" style="stop-color:rgb(0%,0%,0%);stop-opacity:0;"/>
</radialGradient>
<linearGradient id="linear4" gradientUnits="userSpaceOnUse" x1="254" y1="222.916672" x2="254" y2="95.916664" >
<stop offset="0" style="stop-color:rgb(47.058824%,56.470588%,61.176471%);stop-opacity:1;"/>
<stop offset="1" style="stop-color:rgb(56.470588%,64.313725%,68.235294%);stop-opacity:1;"/>
</linearGradient>
</defs>
<g id="surface1">
<path style=" stroke:none;fill-rule:nonzero;fill:url(#linear0);" d="M 349.285156 48.753906 C 302.742188 48.753906 262.746094 75.789062 244.085938 115.078125 C 237.128906 113.242188 229.820312 112.257812 222.269531 112.257812 C 186.046875 112.257812 155.285156 134.78125 143.144531 166.636719 C 132.683594 159.058594 119.804688 154.597656 105.84375 154.597656 C 70.660156 154.597656 42.335938 182.917969 42.335938 218.101562 C 42.335938 253.285156 70.660156 281.609375 105.84375 281.609375 C 108.457031 281.609375 111.03125 281.449219 113.5625 281.144531 C 114.472656 281.445312 115.433594 281.609375 116.429688 281.609375 L 349.285156 281.609375 C 349.289062 281.609375 349.296875 281.609375 349.304688 281.609375 C 413.796875 281.597656 465.710938 229.675781 465.710938 165.179688 C 465.710938 100.679688 413.785156 48.753906 349.285156 48.753906 Z M 349.285156 48.753906 "/>
<path style=" stroke:none;fill-rule:nonzero;fill:rgb(100%,100%,100%);fill-opacity:0.392157;" d="M 349.285156 48.753906 C 302.742188 48.753906 262.746094 75.789062 244.085938 115.078125 C 237.128906 113.242188 229.820312 112.257812 222.269531 112.257812 C 186.046875 112.257812 155.285156 134.78125 143.144531 166.636719 C 132.683594 159.058594 119.804688 154.597656 105.84375 154.597656 C 70.660156 154.597656 42.335938 182.917969 42.335938 218.101562 C 42.335938 218.988281 42.359375 219.871094 42.394531 220.746094 C 43.773438 186.804688 71.546875 159.886719 105.84375 159.886719 C 119.804688 159.886719 132.683594 164.351562 143.144531 171.929688 C 155.285156 140.070312 186.046875 117.550781 222.269531 117.550781 C 229.820312 117.550781 237.128906 118.535156 244.085938 120.371094 C 262.746094 81.082031 302.742188 54.042969 349.285156 54.042969 C 412.898438 54.042969 464.28125 104.558594 465.679688 167.828125 C 465.699219 166.945312 465.710938 166.066406 465.710938 165.179688 C 465.710938 100.679688 413.785156 48.753906 349.285156 48.753906 Z M 349.285156 48.753906 "/>
<path style=" stroke:none;fill-rule:nonzero;fill:rgb(0%,0%,0%);fill-opacity:0.235294;" d="M 465.683594 162.765625 C 464.410156 226.136719 412.988281 276.769531 349.304688 276.777344 C 349.296875 276.777344 349.289062 276.78125 349.285156 276.78125 L 116.429688 276.78125 C 115.433594 276.78125 114.472656 276.617188 113.5625 276.316406 C 111.03125 276.621094 108.457031 276.777344 105.84375 276.777344 C 71.46875 276.777344 43.648438 249.742188 42.386719 215.6875 C 42.355469 216.488281 42.335938 217.292969 42.335938 218.101562 C 42.335938 253.285156 70.660156 281.609375 105.84375 281.609375 C 108.457031 281.609375 111.03125 281.449219 113.5625 281.144531 C 114.472656 281.445312 115.433594 281.609375 116.429688 281.609375 L 349.285156 281.609375 C 349.289062 281.609375 349.296875 281.609375 349.304688 281.609375 C 413.796875 281.597656 465.710938 229.675781 465.710938 165.179688 C 465.710938 164.375 465.699219 163.570312 465.683594 162.765625 Z M 465.683594 162.765625 "/>
<path style="fill:none;stroke-width:3;stroke-linecap:round;stroke-linejoin:miter;stroke:rgb(12.941177%,12.941177%,12.941177%);stroke-opacity:1;stroke-miterlimit:4;" d="M 349.251804 -166.250749 C 302.71328 -166.250749 262.721005 -139.218174 244.062631 -99.932863 C 237.106264 -101.768626 229.798368 -102.752907 222.248308 -102.752907 C 186.02911 -102.752907 155.270329 -80.23162 143.130863 -48.379193 C 132.670924 -55.956594 119.793248 -60.417106 105.833643 -60.417106 C 70.653409 -60.417106 42.331895 -32.099497 42.331895 3.080737 C 42.331895 38.260971 70.653409 66.582485 105.833643 66.582485 C 108.446675 66.582485 111.020648 66.422344 113.551656 66.117686 C 114.461726 66.418438 115.422571 66.582485 116.41857 66.582485 L 349.251804 66.582485 C 349.25571 66.582485 349.263522 66.582485 349.271334 66.582485 C 413.757363 66.570768 465.666469 14.65385 465.666469 -49.836085 C 465.666469 -114.329926 413.745646 -166.250749 349.251804 -166.250749 Z M 349.251804 -166.250749 " transform="matrix(1.000095,0,0,1.000095,0,215.020531)"/>
<path style="fill-rule:nonzero;fill:url(#linear1);stroke-width:3;stroke-linecap:square;stroke-linejoin:round;stroke:rgb(12.941177%,12.941177%,12.941177%);stroke-opacity:1;stroke-miterlimit:4;" d="M 68.790306 95.915622 L 439.208058 95.915622 C 445.055156 95.915622 449.792984 100.65345 449.792984 106.500548 C 449.792984 112.34374 445.055156 117.081569 439.208058 117.081569 L 68.790306 117.081569 C 62.947114 117.081569 58.209285 112.34374 58.209285 106.500548 C 58.209285 100.65345 62.947114 95.915622 68.790306 95.915622 Z M 68.790306 95.915622 " transform="matrix(1.000095,0,0,1.000095,0,215.020531)"/>
<path style="fill-rule:nonzero;fill:url(#linear2);stroke-width:3;stroke-linecap:square;stroke-linejoin:round;stroke:rgb(12.941177%,12.941177%,12.941177%);stroke-opacity:1;stroke-miterlimit:4;" d="M 132.292054 148.832443 L 375.710215 148.832443 C 381.553407 148.832443 386.291236 153.300767 386.291236 158.815865 L 386.291236 160.018875 C 386.291236 165.530067 381.553407 169.998391 375.710215 169.998391 L 132.292054 169.998391 C 126.444956 169.998391 121.707128 165.530067 121.707128 160.018875 L 121.707128 158.815865 C 121.707128 153.300767 126.444956 148.832443 132.292054 148.832443 Z M 132.292054 148.832443 " transform="matrix(1.000095,0,0,1.000095,0,215.020531)"/>
<path style=" stroke:none;fill-rule:nonzero;fill:url(#linear3);" d="M 211.6875 437.957031 L 296.363281 437.957031 L 296.363281 459.128906 L 211.6875 459.128906 Z M 211.6875 437.957031 "/>
<path style=" stroke:none;fill-rule:nonzero;fill:url(#radial0);" d="M 296.363281 437.957031 L 338.699219 437.957031 L 338.699219 416.789062 L 296.363281 416.789062 Z M 296.363281 437.957031 "/>
<path style=" stroke:none;fill-rule:nonzero;fill:url(#radial1);" d="M 211.6875 437.957031 L 169.347656 437.957031 L 169.347656 459.128906 L 211.6875 459.128906 Z M 211.6875 437.957031 "/>
<path style=" stroke:none;fill-rule:nonzero;fill:url(#radial2);" d="M 211.6875 437.957031 L 169.347656 437.957031 L 169.347656 416.789062 L 211.6875 416.789062 Z M 211.6875 437.957031 "/>
<path style=" stroke:none;fill-rule:nonzero;fill:url(#radial3);" d="M 296.363281 437.957031 L 338.699219 437.957031 L 338.699219 459.128906 L 296.363281 459.128906 Z M 296.363281 437.957031 "/>
<path style="fill-rule:nonzero;fill:url(#linear4);stroke-width:3;stroke-linecap:square;stroke-linejoin:round;stroke:rgb(12.941177%,12.941177%,12.941177%);stroke-opacity:1;stroke-miterlimit:4;" d="M 190.501339 201.749265 L 317.50093 201.749265 C 323.344122 201.749265 328.081951 205.948083 328.081951 211.131182 L 328.081951 213.537202 C 328.081951 218.716395 323.344122 222.915212 317.50093 222.915212 L 190.501339 222.915212 C 184.654241 222.915212 179.916413 218.716395 179.916413 213.537202 L 179.916413 211.131182 C 179.916413 205.948083 184.654241 201.749265 190.501339 201.749265 Z M 190.501339 201.749265 " transform="matrix(1.000095,0,0,1.000095,0,215.020531)"/>
</g>
</svg>

<svg xmlns="http://www.w3.org/2000/svg" width="512pt" height="512pt" viewBox="0 0 512 512"><defs><linearGradient id="a" gradientUnits="userSpaceOnUse" x1="960" y1="1695.118" x2="960" y2="815.118" gradientTransform="matrix(.2646 0 0 .2646 0 -166.935)"><stop offset="0" stop-color="#78909c"/><stop offset="1" stop-color="#90a4ae"/></linearGradient><linearGradient id="b" gradientUnits="userSpaceOnUse" x1="254" y1="222.917" x2="254" y2="95.917"><stop offset="0" stop-color="#78909c"/><stop offset="1" stop-color="#90a4ae"/></linearGradient><linearGradient id="c" gradientUnits="userSpaceOnUse" x1="254" y1="222.917" x2="254" y2="95.917"><stop offset="0" stop-color="#78909c"/><stop offset="1" stop-color="#90a4ae"/></linearGradient><linearGradient id="d" gradientUnits="userSpaceOnUse" x1="254" y1="233.5" x2="254" y2="254.667" gradientTransform="matrix(1.0001 0 0 1.0001 15.877 204.436)"><stop offset="0" stop-opacity=".275"/><stop offset="1" stop-opacity="0"/></linearGradient><radialGradient id="e" gradientUnits="userSpaceOnUse" cx="450.909" cy="189.579" fx="450.909" fy="189.579" r="21.167" gradientTransform="matrix(0 -1.25012 -2.25021 0 717.663 1006.941)"><stop offset="0" stop-opacity=".314"/><stop offset=".222" stop-opacity=".275"/><stop offset="1" stop-opacity="0"/></radialGradient><radialGradient id="f" gradientUnits="userSpaceOnUse" cx="450.909" cy="189.579" fx="450.909" fy="189.579" r="21.167" gradientTransform="matrix(0 1.25012 2.25021 0 -209.614 -131.024)"><stop offset="0" stop-opacity=".314"/><stop offset=".222" stop-opacity=".275"/><stop offset="1" stop-opacity="0"/></radialGradient><radialGradient id="g" gradientUnits="userSpaceOnUse" cx="450.909" cy="189.579" fx="450.909" fy="189.579" r="21.167" gradientTransform="matrix(0 -1.25012 2.25021 0 -209.614 1006.941)"><stop offset="0" stop-opacity=".314"/><stop offset=".222" stop-opacity=".275"/><stop offset="1" stop-opacity="0"/></radialGradient><radialGradient id="h" gradientUnits="userSpaceOnUse" cx="450.909" cy="189.579" fx="450.909" fy="189.579" r="21.167" gradientTransform="matrix(0 1.25012 -2.25021 0 717.663 -131.024)"><stop offset="0" stop-opacity=".314"/><stop offset=".222" stop-opacity=".275"/><stop offset="1" stop-opacity="0"/></radialGradient><linearGradient id="i" gradientUnits="userSpaceOnUse" x1="254" y1="222.917" x2="254" y2="95.917"><stop offset="0" stop-color="#78909c"/><stop offset="1" stop-color="#90a4ae"/></linearGradient></defs><path d="M349.285 48.754c-46.543 0-86.539 27.035-105.2 66.324a85.378 85.378 0 0 0-21.815-2.82c-36.223 0-66.985 22.523-79.125 54.379-10.461-7.578-23.34-12.04-37.301-12.04-35.184 0-63.508 28.321-63.508 63.505 0 35.183 28.324 63.507 63.508 63.507 2.613 0 5.187-.16 7.719-.464.91.3 1.87.464 2.867.464h232.875c64.492-.011 116.406-51.933 116.406-116.43 0-64.5-51.926-116.425-116.426-116.425zm0 0" fill="url(#a)"/><path d="M349.285 48.754c-46.543 0-86.539 27.035-105.2 66.324a85.378 85.378 0 0 0-21.815-2.82c-36.223 0-66.985 22.523-79.125 54.379-10.461-7.578-23.34-12.04-37.301-12.04-35.184 0-63.508 28.321-63.508 63.505 0 .886.023 1.77.059 2.644 1.378-33.941 29.152-60.86 63.449-60.86 13.96 0 26.84 4.466 37.3 12.044 12.141-31.86 42.903-54.38 79.126-54.38 7.55 0 14.859.985 21.816 2.821 18.66-39.289 58.656-66.328 105.2-66.328 63.612 0 114.995 50.516 116.394 113.785.02-.883.03-1.762.03-2.648 0-64.5-51.925-116.426-116.425-116.426zm0 0" fill="#fff" fill-opacity=".392"/><path d="M465.684 162.766c-1.274 63.37-52.696 114.004-116.38 114.011-.007 0-.015.004-.019.004H116.43a9.11 9.11 0 0 1-2.868-.465c-2.53.305-5.105.461-7.718.461-34.375 0-62.196-27.035-63.457-61.09-.032.801-.051 1.606-.051 2.415 0 35.183 28.324 63.507 63.508 63.507 2.613 0 5.187-.16 7.719-.464.91.3 1.87.464 2.867.464h232.875c64.492-.011 116.406-51.933 116.406-116.43 0-.804-.012-1.609-.027-2.413zm0 0" fill-opacity=".235"/><path d="M349.285 48.754c-46.543 0-86.539 27.035-105.2 66.324a85.378 85.378 0 0 0-21.816-2.82c-36.222 0-66.984 22.523-79.125 54.379-10.46-7.578-23.34-12.04-37.3-12.04-35.184 0-63.508 28.321-63.508 63.505 0 35.183 28.324 63.507 63.508 63.507 2.613 0 5.187-.16 7.718-.465.91.301 1.872.465 2.868.465h232.875c64.492-.011 116.406-51.933 116.406-116.43 0-64.5-51.926-116.425-116.426-116.425zm0 0" fill="none" stroke-width="3.0002699999999995" stroke-linecap="round" stroke="#212121"/><path d="M68.79 95.916h370.418c5.847 0 10.585 4.737 10.585 10.585 0 5.843-4.738 10.58-10.585 10.58H68.79c-5.843 0-10.58-4.737-10.58-10.58 0-5.848 4.737-10.585 10.58-10.585zm0 0" transform="matrix(1.0001 0 0 1.0001 0 215.02)" fill="url(#b)" stroke-width="3" stroke-linecap="square" stroke-linejoin="round" stroke="#212121"/><path d="M132.292 148.832H375.71c5.843 0 10.581 4.469 10.581 9.984v1.203c0 5.511-4.738 9.98-10.58 9.98H132.291c-5.847 0-10.585-4.469-10.585-9.98v-1.203c0-5.515 4.738-9.984 10.585-9.984zm0 0" transform="matrix(1.0001 0 0 1.0001 0 215.02)" fill="url(#c)" stroke-width="3" stroke-linecap="square" stroke-linejoin="round" stroke="#212121"/><path d="M211.688 437.957h84.675v21.172h-84.675zm0 0" fill="url(#d)"/><path d="M296.363 437.957H338.7v-21.168h-42.336zm0 0" fill="url(#e)"/><path d="M211.688 437.957h-42.34v21.172h42.34zm0 0" fill="url(#f)"/><path d="M211.688 437.957h-42.34v-21.168h42.34zm0 0" fill="url(#g)"/><path d="M296.363 437.957H338.7v21.172h-42.336zm0 0" fill="url(#h)"/><path d="M190.501 201.75h127c5.843 0 10.581 4.198 10.581 9.381v2.406c0 5.18-4.738 9.378-10.581 9.378h-127c-5.847 0-10.585-4.199-10.585-9.378v-2.406c0-5.183 4.738-9.382 10.585-9.382zm0 0" transform="matrix(1.0001 0 0 1.0001 0 215.02)" fill="url(#i)" stroke-width="3" stroke-linecap="square" stroke-linejoin="round" stroke="#212121"/></svg>
